shanto268/ML_qubit_design/model_predict_qubit-TransmonCross-Hamiltonian_params/random_candidates_for_ansys_validation.csv
sigma_for_gauss,sample_number,test_set_index_as_gauss_mean,avg_percent_err_in_cap,surrogate_inference_us,design_options.connection_pads.readout.claw_length,design_options.connection_pads.readout.ground_spacing,design_options.cross_length,surrogate_pred_qubit_frequency_GHz,surrogate_pred_anharmonicity_MHz,target_qubit_frequency_GHz,target_anharmonicity_MHz
1,1,9,1.19592,70.1041,0.000114055,9.0703e-06,0.000253325,4.15804,-154.158,4.18855,-156.766
1,2,5,0.542122,70.1041,9.20356e-05,4.99302e-06,0.000251834,4.18134,-156.325,4.19691,-157.448
1,3,84,2.74079,70.1041,9.44919e-05,4.08116e-06,0.000173912,5.14107,-246.637,5.05804,-237.516
1,4,109,1.10062,70.1041,0.000252127,4.06839e-06,0.000304323,3.86454,-131.514,3.89046,-133.565
1,5,75,0.412141,70.1041,0.000279618,4.10657e-06,0.000370305,3.48932,-105.517,3.49666,-106.169
1,6,5,0.0231605,70.1041,9.93479e-05,4.99148e-06,0.000250141,4.19558,-157.471,4.19691,-157.448
1,7,277,0.365616,70.1041,0.00031025,4.06791e-06,0.000409096,3.26829,-92.02,3.26192,-91.5294
1,8,176,0.127323,70.1041,0.000117167,4.97871e-06,0.000179389,4.9604,-226.842,4.96034,-227.419
1,9,279,0.0520592,70.1041,0.000135552,4.09809e-06,0.000260601,4.18852,-156.484,4.18588,-156.548
1,10,101,1.09353,70.1041,0.000239929,1.00734e-05,0.000409304,3.27812,-93.0022,3.26108,-91.4795
2,1,75,0.666171,41.257,0.000282744,4.09655e-06,0.0003714,3.48319,-105.164,3.49666,-106.169
2,2,228,1.39433,41.257,7.67148e-05,4.91671e-06,0.00033602,3.60729,-113.409,3.63872,-115.635
2,3,77,2.95664,41.257,8.03282e-05,9.24031e-06,0.000261461,4.1088,-150.395,4.03456,-144.509
2,4,125,8.05971,41.257,8.13041e-05,9.96103e-06,0.00015488,5.44401,-280.604,5.19449,-252.078
2,5,90,0.756198,41.257,0.000132967,9.94976e-06,0.000316486,3.77982,-125.601,3.76278,-124.284
2,6,277,0.111,41.257,0.000300675,4.08157e-06,0.000410087,3.2635,-91.6883,3.26192,-91.5294
2,7,237,0.603591,41.257,0.000144835,1.0154e-05,0.000264533,4.16508,-155.21,4.18396,-156.392
2,8,143,2.53066,41.257,0.000127996,9.13043e-06,0.000195424,4.76562,-208.324,4.69377,-201.22
2,9,273,2.81495,41.257,0.000273345,1.00205e-05,0.000423319,3.20467,-87.9681,3.26175,-91.5191
2,10,33,0.703462,41.257,8.8566e-05,4.06761e-06,0.000121264,6.16109,-372.066,6.18912,-375.65
5,1,77,5.48043,39.2436,5.47053e-05,9.42977e-06,0.000292429,3.89344,-133.724,4.03456,-144.509
5,2,33,17.1343,39.2436,6.33198e-05,4.62301e-06,0.000147399,5.51594,-287.779,6.18912,-375.65
5,3,277,0.926525,39.2436,0.000291192,3.74351e-06,0.000417149,3.24337,-90.354,3.26192,-91.5294
5,4,262,3.33511,39.2436,5.78615e-05,9.63384e-06,0.000254097,4.1898,-156.753,4.27937,-164.272
5,5,277,5.89458,39.2436,0.000309939,4.18537e-06,0.000435521,3.14997,-83.8803,3.26192,-91.5294
5,6,274,1.97108,39.2436,0.000266427,4.07487e-06,0.000427128,3.18956,-86.6099,3.22277,-89.2072
5,7,226,3.75934,39.2436,0.000304449,8.87602e-06,0.000336306,3.60743,-113.657,3.69804,-119.726
5,8,279,11.1921,39.2436,0.000142696,4.09482e-06,0.000228314,4.47225,-180.88,4.18588,-156.548
5,9,226,3.77365,39.2436,0.000272837,9.6638e-06,0.000340235,3.60754,-113.619,3.69804,-119.726
5,10,84,7.08261,39.2436,7.46942e-05,3.59513e-06,0.00016926,5.26957,-261.228,5.05804,-237.516
10,1,90,6.13653,39.1546,0.000136066,1.03225e-05,0.000302216,3.90829,-134.732,3.76278,-124.284
10,2,5,10.7896,39.1546,9.44943e-05,4.43291e-06,0.000293342,3.90618,-134.379,4.19691,-157.448
10,3,230,5.30594,39.1546,0.000248789,9.09405e-06,0.000262879,4.09219,-148.979,3.96086,-138.848
10,4,176,6.16636,39.1546,0.000152973,5.10104e-06,0.00016727,5.14323,-247.081,4.96034,-227.419
10,5,9,0.825459,39.1546,0.00011095,8.79722e-06,0.000246237,4.2078,-158.634,4.18855,-156.766
10,6,230,2.31509,39.1546,0.000188301,7.94943e-06,0.000261794,4.01951,-143.221,3.96086,-138.848
10,7,202,2.48969,39.1546,0.000161365,9.48304e-06,0.000241714,4.29334,-165.122,4.35929,-171.051
10,8,259,8.15866,39.1546,4.84966e-05,8.66121e-06,0.000335134,3.6146,-114.118,3.81761,-128.222
10,9,289,3.18162,39.1546,0.000133416,9.94247e-06,0.00020219,4.75395,-207.118,4.66332,-198.351
10,10,279,2.96429,39.1546,0.00010106,3.01529e-06,0.000285539,4.09072,-150.826,4.18588,-156.548
20,1,75,14.7249,43.628,0.000301238,4.0133e-06,0.000313241,3.81205,-127.86,3.49666,-106.169
20,2,118,40.7569,43.628,0.000136213,3.50072e-06,0.000254203,4.30622,-167.982,3.49559,-106.1
20,3,259,8.31089,43.628,3.46791e-05,1.09557e-05,0.000303308,4.00552,-143.224,3.81761,-128.222
20,4,101,32.9393,43.628,0.000280668,1.10726e-05,0.000556347,2.62034,-49.188,3.26108,-91.4795
20,5,259,4.05106,43.628,5.14404e-05,9.81943e-06,0.000293387,3.91414,-135.369,3.81761,-128.222
20,6,45,49.1325,43.628,0.000258329,7.88334e-06,0.000120577,5.9618,-346.377,4.70201,-202.001
20,7,45,47.0056,43.628,0.000240398,9.16225e-06,0.000126895,5.92556,-339.341,4.70201,-202.001
20,8,274,31.7407,43.628,0.000222379,3.77736e-06,0.000313292,3.8291,-129.054,3.22277,-89.2072
20,9,124,15.31,43.628,0.000187474,7.69657e-06,0.00039398,3.27827,-91.7615,3.63967,-115.7
20,10,176,10.0949,43.628,0.000100943,5.05296e-06,0.000205044,4.64,-196.19,4.96034,-227.419
40,1,237,1.68498,38.7744,-4.11788e-06,8.87443e-06,0.000244626,4.2225,-160.222,4.18396,-156.392
40,2,84,23.0364,38.7744,0.000230852,7.10266e-06,0.000230972,4.27145,-165.023,5.05804,-237.516
40,3,176,59.4262,38.7744,2.80164e-05,4.95306e-06,0.000105294,6.5246,-425.994,4.96034,-227.419
40,4,277,19.3137,38.7744,0.000174076,2.50855e-06,0.000375407,3.62379,-116.731,3.26192,-91.5294
40,5,90,233.704,38.7744,4.59961e-05,9.73307e-06,7.27525e-05,7.54726,-580.199,3.76278,-124.284
40,6,274,69.2523,38.7744,0.000218207,3.14664e-06,0.000244553,4.42738,-179.42,3.22277,-89.2072
40,7,125,51.8574,38.7744,0.000333044,7.34016e-06,0.000405199,3.20365,-87.2475,5.19449,-252.078
40,8,46,40.2721,38.7744,0.000274067,9.74211e-07,0.000311185,4.1799,-164.135,3.4479,-103.026
40,9,277,16.5765,38.7744,0.000395352,3.49554e-06,0.000363483,3.58976,-112.675,3.26192,-91.5294
40,10,277,138.244,38.7744,0.000458226,7.09585e-06,0.000144048,5.44996,-283.202,3.26192,-91.5294
